X:1
T:Veni sancte Spiritus
T:Veni sancte Spiritus
T:Seth Calvisius
T:Source : Harmonia-Cantionum Ecclesiasticarum---Leipzig---F.Schnelboltz---1597. Editor : André Vierendeels (07/12/14).
C:Seth Calvisius
%%score [ 1 [ 2 3 ] 4 ]
L:1/8
Q:1/4=120
M:2/2
K:C
V:1 treble nm="Cantus" snm="C"
V:2 treble-8 nm="Tenor 1" snm="T 1"
V:3 treble-8 nm="Tenor 2" snm="T 2"
V:4 bass nm="Bassus" snm="B"
V:1
 C4 D4 | E3 F G2 E2 | F2 D4 ^C2 | D4 F4 | G4 A4 | _B4 A3 G | F2 G2 A4 |"^-natural" C4 D4 | %8
w: Ve- ni|san- * * cte|Spi- * ri-|tus et|e- mit-|te coe- *|* li- tus,|lu- cis|
w: Ve- ni|Pa- * * ter|pau- * pe-|rum, ve-|ni da-|tor mu- *|* ne- rum,|ve- ni|
 E3 F G2 E2 | F2 D4 ^C2 | !fermata!D8 :: A4 ^c4 | d4 d4 | c3 B ^c2 c2 | d4 c4 | A4 c4 | %16
w: tu- * * ae|ra- * di-|um,|con- so-|la- tor|_ _ _ ti-|me, dul-|cis hos-|
w: lu- * * men|cor- * di-|um,|in la-|bo- re|_ _ _ qui-|es,- in|aes- tu|
"^b" G4 F3 G | A2 F4 E2 | D2 D2 ^C4 | G4 F4 | F3 G A2 G2 | F6 E2 | D4 ^C4 | D8 :: d4 d4 | %25
w: pes- a- *||* ni- mae,|dul- ce|re- * * fri-|ge- *|* ri-|um,|O lux|
w: tem- pe- *||* ri- es,|in fle-|tu _ _ so-|la- *|* ti-|um,|si- ne|
 c3 B ^c2 c2 | d4 B4 | A4 F4 | D4 C4 | D4 F4 | G4 F4 | F4 G4 | A4 G4 | F6 E2 | D4 ^C4 | %35
w: be- * * a-|tis- si-|ma, re-|ple cor-|dis in-|ti- ma|tu- a-|rum fi-|de- *|* li-|
w: tu- * * o|no- mi-|ne, ni-|hil est|in ho-|mi- ne,|ni- hil|est in-|no- *|* xi-|
 !fermata!D8 :: d4 d4 | c3 B ^c2 c2 | d4 B4 | A4 A4 | _B4 A4 | F4 G4 | F4 F4 | F4 G4 | A4 G4 | %45
w: um,|la- va|quod _ _ est|sor- di-|dum, ri-|ga quod|est a-|ri- dum,|sa- na|quod est|
w: um,|flec- te|quod _ _ est|ri- gi-|dum, fo-|ve quod|est fri-|gi- dum,|re- ge|quod est|
 c6 B2 | A4 ^G4 | !fermata!A8 :: d4 d4 | G4 A4 | c4 B4 | A4 A4 | _B4 A4 | F4 G4 | F4 F4 | F4 G4 | %56
w: sau- *|* ci-|um,|da tu-|is fi-|de- li-|bus, in|te con-|fi- den-|ti- bus,|sa- crum|
w: de- *|* vi-|um,|da vir-|tu- tis|me- ri-|tum, da|sa- lu-|tis ex-|i- tum,|da per-|
 A4 D4 | F6 E2 | D4 ^C4 | D8 :| %60
w: sep- te-|na- *|* ri-|um,|
w: en- ne|gau- *|* di-|um.|
V:2
 A4 A4 | c4 B2 c2 | d2 A4 A2 | A4 d4 | e4 f4 | d2 g4 fe | d2 d2 e4 | A4 A4 | c4 B2 c2 | d2 A4 A2 | %10
w: Ve- ni|san- * cte|Spi- * ri-|tus et|e- mit-|te coe- * *|* li- tus,|lu- cis|tu- * ae|ra- * di-|
w: Ve- ni|Pa- * ter|pau- * pe-|rum, ve-|ni da-|tor mu- * *|* ne- rum,|ve- ni|lu- * men|cor- * di-|
 !fermata!A8 :: e4 a4 | f4 g4- | g2 a4 a2 | a4 f4 | c4 c4 | c4 d3 c/B/ | A2 _B2 A4- | A2 A2 A4 | %19
w: um,|con- so-|la- tor-|_ op- ti-|me, dul-|cis hos-|pes a- * *||* ni- mae,|
w: um,|in la-|bo- re|_ re- qui-|es, in|aes- tu|tem- pe- * *||* ri- es,|
 d4 d4 |"^b" d3 c/B/ A2 c2 | A8- | A4 A4 | A8 :: a4 a4 | a6 a2 | a4 g4 | f4 c4 | B4 A4 | A4 d4 | %30
w: dul- ce|re- * * * fri-|ge-|* ri-|um,|O lux|be- a-|tis- si-|ma, re-|ple cor-|dis in-|
w: in fle-|tu _ _ _ so-|la-|* ti-|um,|si- ne|tu- o|no- mi-|ne, ni-|hil est|in ho-|
 d4 d4 | d4 e4 | f4 e4 | d4 A4- | A4 A4 | !fermata!A8 :: a4 a4 | a6 a2 | a4 g4 | f4 f4 | f4 f4 | %41
w: ti- ma|tu- a-|rum fi-|de- *|* li-|um;|la- va|quod est|sor- di-|dum, ri-|ga quod|
w: mi- ne,|ni- hil|est in-|no- *|* xi-|um,|flec- te|quod est|ri- gi-|dum, fo-|ve quod|
 F2 f3 e/d/ e2 | f2 f2 c4 | d4 e4 | f4 e4 | g8 | e8 | !fermata!e8 :: f4 f4 | e4 c4 | A2 a4 ^g2 | %51
w: est a- * * *|* ri- dum,|sa- na|quod est|sau-|ci-|um,|da tu-|is fi-|de- * li-|
w: est fri- * * *|* gi- dum,|re- ge|quod est|de-|vi-|um,|da vir-|tu- tis|me- * ri-|
 a4 f4 | f4 f4 | F2 f3 e/d/ e2 | f2 f2 c4 | d4 e4 | f2 a2 g3 f/e/ | d3 c/B/ A4- | A4 A4 | A8 :| %60
w: bus, in|te con-|fi- den- * * *|* ti- bus,|sa- crum|sep- te- na- * *||* ri-|um,|
w: tum, da|sa- lu-|tis ex- * * *|* i- tum,|da per-|en- ne gau- * *||* di-|um.|
V:3
 E4 F4 | G6 A2 | F4 E4 | D4 A4 |"^b" c4 c3 B/A/ | G2 d2 ^c4 | d4 ^c4 | E4 F4 | G6 A2 | F4 E4 | %10
w: Ve- ni|san- cte|Spi- ri-|tus et|e- mit- * *|* te coe-|li- tus,|lu- cis|tu- ae|ra- di-|
w: Ve- ni|Pa- ter|pau- pe-|rum, ve-|ni da- * *|* tor mu-|ne- rum,|ve- ni|lu- men|cor- di-|
 !fermata!D8 :: ^c4 e4 | d4 d4 | f4 e4 | d4 A4 | F4 A4 | G4 A3 G | c2 d2 D2 E2 | F2 F2 E4 | B4 A4 | %20
w: um,|con- so-|la- tor|op- ti-|me, dul-|cis hos-|pes a- *||* ni- mae,|dul- ce|
w: um,|in la-|bo- re|re- qui-|es, in|aes- tu|tem- pe- *||* ri- es,|in fle-|
 A3 G F2 E2 | D6 E2 | F4 E4 | D8 :: f4 f4 | f4 e4 | f4 e4 | c4 A4 | G4 E4 | F4 _B4 | _B4 A4 | %31
w: re- * * fri-|ge- *|* ri-|um,|O lux|be- a-|tis- si-|ma, re-|ple cor-|dis in-|ti- ma|
w: tu _ _ so-|la- *|* ti-|um,|si- ne|tu- o|no- mi-|ne, ni-|hil est|in ho-|mi- ne,|
 A4 c4 | c4 c4 | A6 E2 | F4 E4 | !fermata!D8 :: f4 f4 | f4 e4 | f4 e4 | c4 c4 | d4 c2 A2- | %41
w: tu- a-|rum fi-|de- *|* li-|um,|la- va|quod est|sor- di-|dum, ri-|ga quod est|
w: ni- hil|est in|no- *|* xi-|um,|flec- te|quod est|ri- gi-|dum, fo-|ve quod est|
 AG A2 c4- | c2 c2 A4 | A4 c4 | c4 c4 | e6 d2 | c4 B4 | !fermata!A8 :: A4 d4 | B4 A4 | e4 e4 | %51
w: _ _ _ a-|* ri- dum,|sa- na|quod est|sau- *|* ci-|um,|da tu-|is fi-|de- li-|
w: _ _ _ fri-|* gi- dum,|re- ge|quod est|de- *|* vi-|um,|da vir-|tu- tis|me- ri-|
 e4 c4 | d4 c2 A2- | AG A2 c4- | c2 c2 A4 | A4 c4 | c4 B4 | A6 E2 | F4 E4 | D8 :| %60
w: bus, in|te con- fi-|* * * den-|* ti- bus,|sa- crum|sep- te-|na- *|* ri-|um,|
w: tum, da|sa- lu- tis|_ _ _ ex-|* i- tum,|da per-|en- ne|gau- *|* di-|um.|
V:4
 A,,4 D,4 | C,3 D, E,2 A,,2 | D,4 A,,4 | D,4 D,4 | C,4 F,4 | G,4 A,4 | _B,4 A,4 | A,,4 D,4 | %8
w: Ve- ni|san- * * cte|Spi- ri-|tus et|e- mit-|te coe-|li- tus,|lu- cis|
w: Ve- ni|Pa- * * ter|pau- pe-|rum, ve-|ni da-|tor mu-|ne- rum,|ve- ni|
 C,3 D, E,2 A,,2 | D,4 A,,4 | !fermata!D,8 :: A,,4 A,4 | _B,4 B,4 | F,3 G, A,2 A,2 | D,4 F,4 | %15
w: tu- * * ae|ra- di-|um,|con- so-|la- tor|op- * * ti-|me, dul-|
w: lu- * * men|cor- di-|um,|in la-|bo- re|re- * * qui-|es, in|
 F,,4 F,4 | E,4 D,3 E, | F,2 D,4 ^C,2 | D,2 D,2 A,,4 | G,,4 D,4 | D,3 E, F,2 C,2 | D,6 ^C,2 | %22
w: cis hos-|pes a- *||* ni- mae,|dul- cis|re- * * fri-|ge- *|
w: aes- tu|tem- pe- *||* ri- es,|in fle-|tu _ _ so-|la- *|
 D,4 A,,4 | D,8 :: D,4 D,4 | F,3 G, A,2 A,2 | D,4 E,4 | F,4 F,,4 | G,,4 A,,4 | D,4 _B,,4 | %30
w: * ri-|um,|O lux|be- * * a-|tis- si-|ma, re-|ple cor-|dis in-|
w: * ti-|um,|si- ne|tu- * * o|no- mi-|ne, ni-|hil est|in ho-|
 G,,4 D,4 | D,4 C,4 | F,4 C,4 | D,6 ^C,2 | D,4 A,,4 | !fermata!D,8 :: D,4 D,4 | F,3 G, A,2 A,2 | %38
w: ti- ma|tu- a-|rum fi-|de- *|* li-|um,|la- va|quod _ _ est|
w: mi- ne,|ni- hil|est in|no- *|* xi-|um,|flec- te|quod _ _ est|
 D,4 E,4 | F,4 F,4 | _B,,4 F,4 | D,4 C,4 | F,,4 F,,4 | D,4 C,4 | F,4 C,4 | C6 G,2 | A,4 E,4 | %47
w: sor- di-|dum, ri-|ga quod|est a-|ri- dum,|sa- na|quod est|sau- *|* ci-|
w: ri- gi-|dum, fo-|ve quod|est fri-|gi- dum,|re- ge|quod est|de- *|* vi-|
 !fermata!A,,8 :: D,4 D,4 | E,4 F,4 | A,4 E,4 | A,,4 F,4 | _B,,4 F,4 | D,4 C,4 | F,,4 F,,4 | %55
w: um,|da tu-|is fi-|de- li-|bus, in|te con-|fi- den-|ti- bus,|
w: um,|da vir-|tu- tis|me- ri-|tum, da|sa- lu-|tis ex-|i- tum,|
 D,4 C,4 | F,,4 G,,4 | D,6 ^C,2 | D,4 A,,4 | D,8 :| %60
w: sa- crum|sep- te-|na- *|* ri-|um.|
w: da per-|en- ne|gau- *|* di-|um.|

